X:20
T: Farewell To Long Hollow
C: Bill Monroe
S: arr. Chris Henry from CD "Monroe Approved"
S: MandoZine TablEdit Archives
Z: TablEdited by Greg Rohrer for MandoZine
L: 1/8
Q: 400
M: 4/4
K: Am
 [E4A,4] [E4A,4] | [E4A,4] [E4A,4] |
 "Am"[EA,][EA,] [EA,][EA,] A,C D2 | [AE][AE] [AE][AE] E2 ^F2 |
 "G"[BG][BG] [BG][BG] [BG]^F G^F | "Am"[AE][AE] [AE][AE] [AE][AE] [AE][AE]
 | z2 [AA][AA] [AA][AA] [A2G2] | [A3A3][AG] [A2E2] D2 |
 "E"[EC][EC] [EC][EC] B,C B,2 | "Am"[EA,][EA,] [EA,][EA,] [E2A,2] G,2 |
"Am"[EA,][EA,] [EA,][EA,] A,C D2 | [AE][AE] [AE][AE] E2 ^F2 |
 "G"[BG][BG] [BG][BG] [BG]^F G^F | "Am"[AE][AE] [AE][AE] [AE][AE] [AE][AE] |
 z2 [ee][ee] [ee][ee] [ee][ee] | [ec][ec] [ec][ec] GE D2 |
 "E"[E2C2] [EC][EC] B,C B,2 | "Am"[E2A,2] [EA,][EA,] [E2A,2] eg |
 "Am"ag ed cc AB | cB AG ED CB, | A,B, CD EG AG | "E"[B2E2] [BE][BE] [B2E2] eg |
 "Am"ag ed cc AB | cB AG ED CB, | A,B, CD "E"EG AG | "Am"EC A,4 eg |
 "Am"ag ed cc AB | cB AG ED CB, | A,B, CD EG AG | "E"[B2E2] [BE][BE] [B2E2] eg |
 "Am"ag ed cc AB | cB AG ED CB, | A,B, CD "E"EG AG | "Am"EC A,6 |
